assets/fc/fc-statistics.svg

<svg xmlns="http://www.w3.org/2000/svg" width="100%" height="100%" viewBox="0 0 48 48"><g fill="#37474F"><path d="M23 5h2v36h-2z"/><path d="M25.817 32.772l1.414 1.414-10.04 10.04-1.414-1.414z"/><path d="M32.259 42.824l-1.414 1.414-10.04-10.04 1.414-1.414z"/></g><path fill="#CFD8DC" d="M4 8h40v28H4z"/><g fill="#607D8B"><path d="M3 7h42v4H3zM3 35h42v2H3z"/><circle cx="31.5" cy="43.5" r="1.5"/><circle cx="16.5" cy="43.5" r="1.5"/></g><g fill="#C51162"><path d="M31.9 18.9l-5.9 6-6-6-8.1 8 2.2 2.2 5.9-6 6 6 8.1-8z"/><path d="M36 24l-7-7h7z"/></g></svg>

<svg xmlns="http://www.w3.org/2000/svg" width="100%" height="100%" viewBox="0 0 48 48"><g fill="#37474F"><path d="M23 5H25V41H23z"/><path d="M20.5 31.4H22.5V45.599999999999994H20.5z" transform="rotate(45 21.503 38.504)"/><path d="M25.5 31.4H27.5V45.599999999999994H25.5z" transform="rotate(135 26.514 38.512)"/></g><path fill="#CFD8DC" d="M4 8H44V36H4z"/><g fill="#607D8B"><path d="M3 7H45V11H3zM3 35H45V37H3z"/><circle cx="31.5" cy="43.5" r="1.5"/><circle cx="16.5" cy="43.5" r="1.5"/></g><g fill="#C51162"><path d="M31.9 18.9L26 24.9 20 18.9 11.9 26.9 14.1 29.1 20 23.1 26 29.1 34.1 21.1z"/><path d="M36 24L29 17 36 17z"/></g></svg>
